X: 92
T: Sitting Bull's Medicine Song (b)
C: Teton Sioux band 1911-1914
N: Derived from sioux092.krn
O: South Dakota, U.S.A.
N: Teton Sioux Music by Frances Densmore, 1918
Z: transcribed to **kern format by Craig Sapp
L: 1/8
M: 3/4
Q: 1/4=58
K: Bb clef=bass
%%linebreak <none>
(3D D D [I:setbarnb 1]| 
D4-D3/ D/ | 
D CC2B, B, ||  
[M:2/4]B,4- | 
B,2(3B, B, B, ||  
[M:3/4]B,4-B,3/ B,/ | 
B, B,B,2F, F, ||  
[M:2/4]F,4- | 
F,2(3G, G, B, ||  
[M:3/4]B,4-B,3/ B,/ | 
B, B,B,2B, B, ||  
[M:2/4]B,4- | 
B,4 | 
D D D3/ D/ | 
D3C ||  
[M:3/4](3C B, B,B,4 ||  
[M:2/4]B,2(3B, B, B, ||  
[M:3/4]B,4-B,3/ B,/ | 
B, B,B,2F, F, ||  
[M:2/4]F,4- | 
F,2(3G, G, G, ||  
[M:3/4]B,4-B,3/ B,/ | 
B, B,B,2B, B, | 
B,6 |]  



